!!!COM:	Praetorius, Michael
!!!OTL:	Gott der Vater wohn uns bei
**kern	**kern	**kern	**kern
*ICvox	*ICvox	*ICvox	*ICvox
*I"Bassus	*I"Tenor	*I"Altus	*I"Diskantus
*clefF4	*clefGv2	*clefG2	*clefG2
*k[]	*k[]	*k[]	*k[]
*M2/2	*M2/2	*M2/2	*M2/2
!!Meter Interpreted, Nat Condit-Schultz, 2018, Free
*met(c)	*met(c)	*met(c)	*met(c)
2C	2c	2e	2g
2C	2c	2e	2g
2C	2c	2e	2a
2BB	2G	2d	2b
2AA	2c	2e	2cc
2AA	2A	2f#	2cc
2GG	2d	2g	2b
=	=	=	=
2C	2c	2e	2g
2AA	2c	2e	2cc
2E	2B	2e	2g
2A	2A	2c	2e
2D	2A	2.d	2f
1G	4B	.	2e
.	4c	2c	.
.	4d	.	2d
.	4G	4B	.
1C	1G	1c	1c
=:|	=:|	=:|	=:|
2C	2E	2G	2c
2BB	2D	2G	2d
2.AA	2.A	2.c	2.e
4F	4A	4d	4d
2E	2G	2e	2c
2D	2F	2A	2d
1C	1G	1c	1e
=	=	=	=
2r	2r	2r	2r
2C	2e	2g	2cc
2G	2d	2g	2b
2A	2c	2e	2cc
2D	4A	2.f	2.dd
.	8GL	.	.
.	8AJ	.	.
2D	4B	.	.
.	2A	4f	4cc
1D	.	1d	2b
.	2G	.	.
.	.	.	2a
.	4F#	.	.
1GG	1G	1d	1g
=	=	=	=
2r	2r	2r	2r
2G	2B	2d	2g
2E	2B	2e	2g
2C	2e	2g	2cc
2G	2d	2.g	2b
2E	2c	.	2g
.	.	4e	.
1D	2.A	4f	2a
.	.	4e	.
.	.	2d	2f
.	4B	.	.
1C	1c	1G	1e
=	=	=	=
2r	2r	2r	2r
2GG	2B	2d	2d
2C	2A	2c	2e
2D	2d	2A	2f
2GG	2.B	2d	2.g
2GG	.	4e	.
.	4A	2d	4f
1GG	1G	.	2e
.	.	4c	.
.	.	2B	2d
1C	1E	1G	1c
=	=	=	=
2AA	2E	2A	2c
2GG	2G	2B	2d
2.C	2.G	2.c	2.e
4F	4A	4d	4d
2E	2G	2e	2c
2D	2F	2A	2d
1C	1G	1c	1e
=	=	=	=
2r	2r	2r	2r
2C	2e	2g	2cc
2G	2d	2g	2b
2A	2c	2e	2cc
2D	4A	2f 2a	2.dd
.	8GL	.	.
.	8AJ	.	.
2D	4B	2f 2a	.
.	2A	.	4cc
1D	.	1d	(2b
.	2G	.	.
.	.	.	2a)
.	4F#	.	.
1GG	1G	1d	1g
=	=	=	=
2r	2r	2r	2r
2G	2B	2d	2g
2E	2B	2e	2g
2C	2e	2g	2cc
2G	2d	2.g	2b
2E	2c	.	2g
.	.	4e	.
1D	2.A	4f	(2a
.	.	4e	.
.	.	2d	2f)
.	4B	.	.
1C	1c	1G	1e
=	=	=	=
2r	2r	2r	2r
2GG	2B	2d	2d
2C	2A	2c	2e
2D	2d	2A	2f
2GG	2.B	2d	2.g
2GG	.	4e	.
.	4A	2d	4f
1GG	1G	.	(2e
.	.	4c	.
.	.	2c	2d)
1C	1E	1G	1c
=	=	=	=
2AA	2E	2A	2c
2D	2F	2B	2d
2.C	2.G	2.c	2.e
4BB	4D	4G	4d
2AA	2E	2A	2c
2D	2F	2B	2d
1AA	1E	1c	1e
=	=	=	=
2r	2r	2r	2r
2FF	2A	2c	2f
2C	2G	2e	2g
2GG	2B	2d	2g
2BB	2G	2d	2g
2C	2G	2c	2e
2FF	2A	2c	2f
2GG	2G	2B	2d
00C	00E	00G	00c
==	==	==	==
*-	*-	*-	*-
